X: 68
T: Feder Mikkel
O: Danmark
R: fynbo
M: 2/4
L: 1/16
K: G
V:1
GA | "G"B2G2 G2AB | "D"c2A2 A2dc | "G"B2G2 "D"A2F2 | "G"G2D2 D2 GA | 
"G"B2G2 G2AB| "D7"c2A2 A2dc | "G"B2G2 "D"A2F2 |"G"G6 Bc||
|:  "G"d2d2 d2g2 | "C"e2c2 c4 | "A"e2e2 e2ag | "D"f2d2 d2ed |
 "G"B2G2 G2AB | "D"c2A2 A2dc | "G"B2G2 "D"A2F2 |1 "G"G6 Bc :|2 "G" G6 z2|]
V:2
GA | G2D2 D2FG | A2F2 F2AG | G2D2 F2D2 | D2B,2 B,2DF|
G2D2 D2FG | A2F2 F2AG | G2D2 F2D2 | D6 GA ||
|:B2B2 B2d2 | c2G2 G4| ^c2c2 cdcB | A2G2 F2EF|
G2D2 D2FG | A2F2 F2AG | G2D2 F2D2 |1 D6 GA :|2 B,6 z2 |]

